img/svg/icon-font/pencil.svg

<svg width="22" height="22" viewBox="0 0 22 22" fill="none" xmlns="http://www.w3.org/2000/svg">
<g clip-path="url(#clip0)">
<path d="M20.711 1.28932C19.8796 0.457875 18.7742 0 17.5985 0C16.4227 0 15.3173 0.457875 14.4859 1.28928L2.18416 13.5911C2.07949 13.6957 2.00365 13.8257 1.96395 13.9683L0.0317294 20.9102C-0.0515871 21.2096 0.0331903 21.5307 0.253577 21.7499C0.416858 21.9123 0.635655 22 0.859695 22C0.937984 22 1.01696 21.9893 1.09443 21.9673L8.03634 19.9954C8.32921 19.9122 8.55626 19.6802 8.63309 19.3856C8.70992 19.0909 8.6251 18.7776 8.41012 18.562L4.03367 14.1723L14.2308 3.97508L18.0231 7.76742L10.2168 15.5525C9.88077 15.8876 9.88004 16.4317 10.2152 16.7678C10.5503 17.1039 11.0945 17.1046 11.4305 16.7695L20.7109 7.51433C21.5424 6.68293 22.0002 5.57756 22.0002 4.4018C22.0002 3.22605 21.5424 2.12068 20.711 1.28932ZM6.16174 18.7412L2.09827 19.8954L3.2363 15.8068L6.16174 18.7412ZM19.4965 6.29814L19.2401 6.55377L15.4462 2.75975L15.7013 2.50461C16.2081 1.99783 16.8818 1.71875 17.5985 1.71875C18.3152 1.71875 18.9889 1.99783 19.4956 2.50465C20.0024 3.01138 20.2815 3.68513 20.2815 4.4018C20.2815 5.11848 20.0024 5.79223 19.4965 6.29814Z" fill="#4C51CB"/>
</g>
<defs>
<clipPath id="clip0">
<rect width="22" height="22" fill="white"/>
</clipPath>
</defs>
</svg>

<svg width="22" height="22" fill="none" xmlns="http://www.w3.org/2000/svg"><g clip-path="url(#clip0)"><path d="M20.711 1.29A4.373 4.373 0 0017.599 0a4.373 4.373 0 00-3.113 1.29L2.184 13.59a.859.859 0 00-.22.377L.032 20.91a.86.86 0 001.062 1.057l6.942-1.972a.86.86 0 00.374-1.433l-4.376-4.39L14.23 3.975l3.792 3.792-7.806 7.785a.86.86 0 001.213 1.218l9.28-9.256A4.373 4.373 0 0022 4.402a4.373 4.373 0 00-1.289-3.113zM6.161 18.74l-4.063 1.154 1.138-4.088 2.926 2.934zM19.498 6.298l-.257.256-3.794-3.794.255-.255a2.665 2.665 0 011.898-.786c.716 0 1.39.279 1.897.786.506.506.786 1.18.786 1.897 0 .716-.28 1.39-.785 1.896z" fill="#4C51CB"/></g><defs><clipPath id="clip0"><path fill="#fff" d="M0 0h22v22H0z"/></clipPath></defs></svg>
